!!!OTL: 966d. Ringeltanz beim Mailehen.
!!!ODT: 1842
!!!ARE: Europa, Mitteleuropa, Deutschland; Rossiya, Litauen
!!!SCT: E0966A
!!!TXL: @@GSW
!!!YEM: Copyright 1995, estate of Helmut Schaffrath.
**kern	**text
*ICvox	*
*M2/4	*
*k[]	*
*C:	*
!LO:TX:a:t=Mäßig.	!
!LO:TX:a:t=Volkslied im deutſchen Litthauen. 1842.	!
8g	.
=1	=1
{8g	Op
8cc	dö
8b	grö-
8dd	-ne
=2	=2
8cc	We-
8cc	.
8g	-ſe,
8r}	.
=3	=3
{4a	fa-
4b/	-ri-
=4	=4
4cc	rom,
8r}	.
{8g	.
=5	=5
8g	ſteit
8cc	ä
8b	Boom
8dd	möt
=6	=6
8cc	Nä-
8cc	.
8g}	-te.
{8g	Fa-
=7	=7
8a	-ri,
8f	fa-
8f	-ra
8a	ver
=8	=8
8g	Nä-
8e	-wel-
8e}	-ke,
{8cc	ver
=9	=9
8a	wun-
8f	-der-
8f	-ſche-
8a	-net
=10	=10
8g	Knäwel-
8e	.
8e	-ke,
8cc	fa-
=11	=11
8b	-ri,
8g	fa-
8a	-ra,
8b	fa-
=10	=10
4cc	-rom!
8r}	.
==	==
!!!AGN: Tanz - Lied, Reigen, Mai - Tanz
!!!ONB: ESAC (Essen Associative Code) Database: ERK2
!!!AMT: simple duple
!!!AIN: vox
!!!EED: Helmut Schaffrath
!!!EEV: 1.0
!!!GTL: Tanz- und Spiellieder.
!!!URL-scan: https://rosdok.uni-rostock.de/mcrviewer/recordIdentifier/rosdok_ppn745177662/iview2/phys_0739.iview2?x=-151.00528573090037&y=1361.842621776741&scale=0.5208463313777512&rotation=0&layout=singlePageLayout
!!!ENC: Anna Maria Matuszewska
!!!EEV: 2024/12/20
*-	*-
